X:1
T:Title
%%score { ( 1 3 4 ) | ( 2 5 ) }
L:1/8
M:3/4
K:Eb
V:1 treble nm="Grand Piano"
V:3 treble 
V:4 treble 
V:2 treble 
V:5 treble 
V:1
 z2 z2[Q:1/4=100] B>G | [GB]4 z2 | [GB]4 z2 | [Bd]4 z2 | [GB]4 z2 | [FA]3 F [Ac]>[GB] | [FA]4 z2 | %7
 [FA]3 [Ac] [GB]>[FA] | [EG]4 [GB]>[GB] | c3 A e>c | [GB]4 [GB]>[GB] | c3 e e>[Fd] | %12
[M:2/4] [Ge]4 |] %13
V:2
 z2 z2 G>E | E,E, z A [E,B,]2 | [E,E]E, E,2[K:treble] A>c | A,A, z A[K:bass] [A,E]2 | %4
 [E,E]E, E,2[K:treble] A>G | z2 B,2[K:bass] z2 | [B,,B,]B,, B,,2 D>E | %7
 B,B, B,[B,,B,] [C,B,]>[D,B,] | [E,B,]4 [E,E]>[E,E] | [A,EA]3 [A,CE] [A,CA]>[A,EA] | %10
 [E,E]4 [E,E]>[E,E] | [A,EA]3 [A,CA] [B,G]>[K:bass][B,,B,] |[M:2/4] [E,B,]4 |] %13
V:3
 x6 | EE z c [GB]>[EG] | z E E2 c>e | EE z c [Bd]>[Ac] | z E E2 c>B | x6 | z B, B,2 F>G | x6 | x6 | %9
 x6 | x6 | x6 |[M:2/4] x4 |] %13
V:4
 x6 | z2 E2 z2 | x6 | z2 E2 z2 | x6 | x6 | x6 | x6 | x6 | x6 | x6 | x6 |[M:2/4] x4 |] %13
V:5
 x6 | z2 E,2 z2 | x4[K:treble] x2 | z2 A,2[K:bass] z2 | x4[K:treble] x2 | %5
 B,B, z D[K:bass] [B,,B,]2 | x6 | x6 | x6 | x6 | x6 | x11/2[K:bass] x/ |[M:2/4] x4 |] %13

